X: 29918
T: O'Sullivan's
R: polka
M: 2/4
K: Amajor
E|A3 E|A3 f|ec BA|F2 FE|A>A A>E|A>A Af|ec Bc|e2 e2|
ef/g/ a>f|ec BA|B>c BA|F3 E|A3 E|A3 f|ec Bc/B/|A2 e>d||
|:ce A>B|ce A>B|ce fe|cB B>e|ce A>B|ce A>B|ce fg|ba a>B:|

